packages/kaspersky-hexa-ui-icons/src/iconsSVGs/16/HomeGarage.svg

<svg width="16" height="16" viewBox="0 0 16 16" fill="none" xmlns="http://www.w3.org/2000/svg">
<path fill-rule="evenodd" clip-rule="evenodd" d="M8.33138 1.71742C8.10623 1.55953 7.80608 1.56042 7.58186 1.71963L0.938274 6.43712C0.645576 6.64497 0.576784 7.05073 0.784625 7.34343C0.992465 7.63613 1.39823 7.70492 1.69093 7.49708L2.28362 7.07622V12.3502C2.28362 13.4824 3.20144 14.4002 4.33362 14.4002H11.6664C12.7986 14.4002 13.7164 13.4824 13.7164 12.3502V7.08146L14.3123 7.49929C14.6062 7.7054 15.0116 7.63422 15.2177 7.3403C15.4238 7.04638 15.3526 6.64102 15.0587 6.43491L8.33138 1.71742ZM9.54141 13.1002H6.45887V11.3472H9.54141V13.1002ZM9.54141 10.0472H6.45887V8.29422H9.54141V10.0472ZM10.8414 10.6868V8.24422C10.8414 7.55387 10.2818 6.99422 9.59141 6.99422H6.40887C5.71851 6.99422 5.15887 7.55387 5.15887 8.24422V13.1002H4.33362C3.91941 13.1002 3.58362 12.7644 3.58362 12.3502V6.15311L7.96053 3.04515L12.4164 6.16984V12.3502C12.4164 12.7644 12.0807 13.1002 11.6664 13.1002H10.8414V10.7076C10.8415 10.7041 10.8415 10.7007 10.8415 10.6972C10.8415 10.6937 10.8415 10.6903 10.8414 10.6868Z" fill="black"/>
</svg>

<svg xmlns="http://www.w3.org/2000/svg" width="16" height="16" fill="none" viewBox="0 0 16 16"><path fill="#000" fill-rule="evenodd" d="M8.3314 1.7175a.65.65 0 0 0-.7495.0022L.9383 6.4373a.65.65 0 1 0 .7526 1.06l.5927-.4209v5.274c0 1.1322.9178 2.05 2.05 2.05h7.3328c1.1322 0 2.05-.9178 2.05-2.05V7.0816l.5959.4178a.65.65 0 0 0 .7464-1.0644zm1.21 11.3828H6.459v-1.753h3.0825zm0-3.053H6.459v-1.753h3.0825zm1.3.6397V8.2444c0-.6904-.5596-1.25-1.25-1.25H6.409c-.6904 0-1.25.5596-1.25 1.25v4.8559h-.8253a.75.75 0 0 1-.75-.75v-6.197l4.377-3.108L12.4163 6.17v6.1803a.75.75 0 0 1-.75.75h-.825v-2.3926l.0001-.0104z"/></svg>
